X:1
T:Ecce panis angelorum - Polleri
T:#
%%score [ 1 2 3 ]
L:1/8
Q:1/4=72
M:3/4
K:G
V:1 treble nm="Soprano I" snm="S I"
V:2 treble nm="Soprano II" snm="S II"
V:3 treble nm="Alto" snm="A"
V:1
"^Ecce panis angelorum""^Giovanni Battista Polleri\n (1855-1923)""^andante religioso" z2!p! B2 c2 | %1
w: Ec- ce|
 d4 d2 | e4 e2 | e4 d2 | z2 G2 A2 | B4 B2 | c4 c2 | c4 B2 |[M:3/4] B4 B2 | B4 A2 | c4 c2 | c4 B2 | %12
w: pa- nis|an- ge-|lo- rum,|Ec- ce|pa- nis|an- ge-|lo- rum,|fa- ctus|ci- bus|vi- a-|to- rum,|
 e4 e2 | e4 d2 | (d2 c2) B2 | B4 A2 | z2 A2 A2 | _B4 B2 | z2 c2 c2 | d4 d2 |!f! _e4 e2 | %21
w: fa- ctus|ci- bus|vi\- * a-|to- rum:|ve- re|pa- nis|fi- li-|o- rum,|ve- re|
 (_e2 d2) d2 | (d2 _B2) c2 | d6 | d4 z2 | z2!p! B2 c2 | d4 d2 | e4 e2 | e4 d2 | z2 G2 A2 | B4 B2 | %31
w: pa\- * nis|fi\- * li-|o-|rum,|Ec- ce|pa- nis|an- ge-|lo- rum,|Ec- ce|pa- nis|
 c4 c2 | c4 B2 | G4 G2 | (G2 A2) A2 | B4 B2 | (B2 c2) c2 | B4 B2 | (B2 c2) c2 |!f! =f4 f2 | %40
w: an- ge-|lo- rum,|fa- ctus|ci\- * bus|vi- a-|to\- * rum,|ve- re|pa\- * nis|fi- li-|
 =f4 e2 |!p! e4 e2 | d4 d2 | c4 c2 | B4 z2 | c4 c2 | B4[Q:1/4=70] B2 | %47
w: o- rum,|non mit-|ten- dus|ca- ni-|bus,|non mit-|ten- dus|
"^rit."[Q:1/4=66]!>(! A4!>)![Q:1/4=63] A2 |[Q:1/4=62] !fermata!B6 |] %49
w: ca- ni-|bus.|
V:2
 z2!p! G2 A2 | B4 B2 | c4 c2 | c4 B2 | z2 E2 F2 | (D2 G2) G2 | (G2 E2) F2 | G4 G2 |[M:3/4] G4 G2 | %9
w: Ec- ce|pa- nis|an- ge-|lo- rum,|Ec- ce|pa\- * nis|an\- * ge-|lo- rum,|fa- ctus|
 G4 F2 | A4 A2 | A4 G2 | c4 c2 | c4 B2 | (B2 A2) G2 | G4 F2 | z2 F2 F2 | G4 G2 | z2 A2 A2 | %19
w: ci- bus|vi- a-|to- rum,|fa- ctus|ci- bus|vi\- * a-|to- rum:|ve- re|pa- nis|fi- li-|
 _B4 B2 |!f! (G2 c_B) (AG) | F4 F2 | G4 G2 | F6 | F4 z2 | z2!p! G2 A2 | B4 B2 | c4 c2 | c4 B2 | %29
w: o- rum,|ve\- * * re *|pa- nis|fi- li-|o-|rum,|Ec- ce|pa- nis|an- ge-|lo- rum,|
 z2 E2 F2 | (D2 G2) G2 | (G2 E2) F2 | G4 G2 | z2 D2 D2 | E4 E2 | z2 F2 F2 | G4 G2 | z2 G2 G2 | %38
w: Ec- ce|pa\- * nis|an\- * ge-|lo- rum,|fa- ctus|ci- bus|vi- a-|to- rum,|ve- re|
 G4 G2 |!f! (G2 A2) B2 | c4 c2 |!p! (c2 G2) A2 | B4 B2 | A4 A2 | G4 z2 | (A2 E2) _E2 | (D2 G2) G2 | %47
w: pa- nis|fi\- * li-|o- rum,|non * mit-|ten- dus|ca- ni-|bus,|non * mit-|ten\- * dus|
"^rit."!>(! (GE F2)!>)! F2 | !fermata!G6 |] %49
w: ca\- * * ni-|bus.|
V:3
 z2!p! G2 G2 | G4 G2 | (G2 F2) F2 | G4 G2 | z2 E2 D2 | B,4 E2 | A,4 A,2 | G,4 G,2 | %8
w: Ec- ce|pa- nis|an\- * ge-|lo- rum,|Ec- ce|pa- nis|an- ge-|lo- rum,|
[M:3/4] z2 E2 ^C2 | D4 D2 | z2 F2 ^D2 | E4 E2 | z2 A2 F2 | G4 G2 | (B,2 C2) ^C2 | D4 D2 | D4 D2 | %17
w: fa- ctus|ci- bus|vi- a-|to- rum,|fa- ctus|ci- bus|vi\- * a-|to- rum:|ve- re|
 G4 G2 | =F4 F2 | _B,4 B,2 |!f! C4 C2 | D4 D2 | _E4 E2 | D6 | D4 z2 | z2!p! G2 G2 | G4 G2 | %27
w: pa- nis|fi- li-|o- rum,|ve- re|pa- nis|fi- li-|o-|rum,|Ec- ce|pa- nis|
 (G2 F2) F2 | G4 G2 | z2 E2 D2 | B,4 E2 | A,4 A,2 | G,4 G,2 | z2 B,2 B,2 | C4 C2 | z2 D2 D2 | %36
w: an\- * ge-|lo- rum,|Ec- ce|pa- nis|an- ge-|lo- rum,|fa- ctus|ci- bus|vi- a-|
 E4 E2 | z2 G2 =F2 | E4 E2 |!f! D4 D2 | C4 C2 |!p! C4 C2 | D4 D2 | ^D4 D2 | E4 z2 | A,4 A,2 | %46
w: to- rum,|ve- re|pa- nis|fi- li-|o- rum,|non mit-|ten- dus|ca- ni-|bus,|non mit-|
 D4 D2 |"^rit."!>(! D4!>)! D2 | !fermata!G,6 |] %49
w: ten- dus|ca- ni-|bus.|

